public/images/provider-icons/icon-angular.js.svg

<?xml version="1.0" encoding="iso-8859-1"?>
<!-- Generator: Adobe Illustrator 17.1.0, SVG Export Plug-In . SVG Version: 6.00 Build 0)  -->
<!DOCTYPE svg PUBLIC "-//W3C//DTD SVG 1.1//EN" "http://www.w3.org/Graphics/SVG/1.1/DTD/svg11.dtd">
<svg version="1.1" id="angular" xmlns="http://www.w3.org/2000/svg" xmlns:xlink="http://www.w3.org/1999/xlink" x="0px" y="0px"
	 viewBox="0 0 60 60" style="enable-background:new 0 0 60 60;" xml:space="preserve">
<g id="Image_xA0_28">
	<g>
		<path style="fill-rule:evenodd;clip-rule:evenodd;fill:#888888;" d="M33.1691,30.9746L30,23.7682v7.2064H33.1691z M29.9898,9
			l-0.0102,0.0142L9.529,16.8165l3.1462,26.6464L29.9796,53l0.0102-0.0015l17.335-9.5356l3.1462-26.6464L29.9898,9z
			 M37.3199,40.4134l-2.7672-6.2925H30v15.7313l-0.0088,0.1142l-0.0088,0.0013L15.063,41.7451l-2.7126-22.9738l17.632-6.7269
			l0.0088-0.0123L30,12.0355v3.2079l11.1867,25.17H37.3199z M26.8309,30.9746L30,23.7682v-8.5249l-11.1867,25.17h3.8668
			l2.7672-6.2925H30v-3.1463H26.8309z"/>
	</g>
</g>
</svg>

<svg xmlns="http://www.w3.org/2000/svg" viewBox="0 0 60 60" enable-background="new 0 0 60 60"><path d="M33.169 30.975l-3.169-7.206v7.206h3.169zm-3.179-21.975l-.01.014-20.451 7.802 3.146 26.646 17.304 9.537.01-.002 17.335-9.536 3.146-26.646-20.481-7.816zm7.33 31.413l-2.767-6.293h-4.553v15.731l-.009.114-.009.001-14.919-8.223-2.713-22.974 17.632-6.727.009-.012.009.003v3.208l11.187 25.17h-3.867zm-10.489-9.439l3.169-7.206v-8.525l-11.187 25.17h3.867l2.767-6.293h4.553v-3.146h-3.169z" fill-rule="evenodd" clip-rule="evenodd" fill="#888"/></svg>
